X:1
T:Allegro
T:Allegro
T:1st movenent from Trio Sonata RV 81 adapted for Oboe, Flute and Cello 
T:Antonio Vivaldi (1678-1741)
T:twoflutes 2019 / Felix Scharpf / https://commons.wikimedia.org/wiki/File:Bemberg_Fondation_Toulouse_-_Femme_%C3%A0_la_Bautta_-_Alessandro_Longhi_-_Inv.1028.jpg
T:twoflutes 2019 / Felix Scharpf / https://commons.wikimedia.org/wiki/File:Bemberg_Fondation_Toulouse_-_Femme_%C3%A0_la_Bautta_-_Alessandro_Longhi_-_Inv.1028.jpg
T:twoflutes 2019 / Felix Scharpf / https://commons.wikimedia.org/wiki/File:Bemberg_Fondation_Toulouse_-_Femme_%C3%A0_la_Bautta_-_Alessandro_Longhi_-_Inv.1028.jpg
T:twoflutes 2019 / Felix Scharpf / https://commons.wikimedia.org/wiki/File:Bemberg_Fondation_Toulouse_-_Femme_%C3%A0_la_Bautta_-_Alessandro_Longhi_-_Inv.1028.jpg
T:twoflutes 2019 / Felix Scharpf / https://commons.wikimedia.org/wiki/File:Bemberg_Fondation_Toulouse_-_Femme_%C3%A0_la_Bautta_-_Alessandro_Longhi_-_Inv.1028.jpg
T:twoflutes 2019 / Felix Scharpf / https://commons.wikimedia.org/wiki/File:Bemberg_Fondation_Toulouse_-_Femme_%C3%A0_la_Bautta_-_Alessandro_Longhi_-_Inv.1028.jpg
C:Antonio Vivaldi
Z:twoflutes 2019 / Felix Scharpf / https://commons.wikimedia.org/wiki/File:Bemberg_Fondation_Toulouse_-_Femme_%C3%A0_la_Bautta_-_Alessandro_Longhi_-_Inv.1028.jpg
%%score [ 1 2 3 ]
L:1/8
Q:1/4=110
M:4/4
K:Bb
V:1 treble nm="Oboe" snm="Ob."
V:2 treble nm="Flute" snm="Fl."
V:3 bass nm="Violoncello" snm="Vc."
V:1
!mf! (d2 e2) (d/c/ B2) .d | (c/B/ A2) .c B(A/G/) .G.G | (B2 c2) (B/A/ G2) .B | %3
 (A/G/ ^F2) .A (G/A/B/c/) d2 |!mp! (gb)(a^f) (gd)(cA) | (Bb)(a^f) (gd)(cA) | %6
 .B!mf!.d (b2 b/)(c'/b/a/ g/f/e/d/) | .c.f (a2 a/)(b/a/g/ f/e/d/c/) | %8
!>(! .B.e (g2 g/)(a/g/f/ e/d/c/B/) |!mp! (A/!>)!B/)(B/c/) (c/B/)(B/A/) (A/B/)(B/c/) (c/B/)(B/A/) | %10
 A3!mf! .f f/e/.d f/e/.d | g/f/.e g/f/.e f/e/.d f/e/.d | g/f/.e g/f/.e (d/c/d/e/) .f z | %13
!p! (d/c/d/e/) .f.e!mf! (d/f/b/).d/ (Pc>B) | B2 z2 (f2 g2) | (f/e/ d2) .f (e/d/ c2) .e | %16
 d(c/B/) .B.B (d2 e2) | (d/c/ B2) .d (c/B/ A2) .c | (B/c/d/e/) f2 f2 (_ac) | %19
 =B3 .G (d/e/f/g/) ._a(g/f/) | .e.d c2!mp! g2 (bd) | ^c3 .A (=e/f/g/a/) .b(a/g/) | %22
"_cresc." .f(=ed).a .b(a/g/ f/e/f/g/) | .a(g/f/ =e/d/e/f/) .g(f/e/ d/^c/d/e/) | %24
 .f.^c (d2 d)(=e/f/) .g(f/e/) | .f.^c (d2 d)(=e/f/) .g(f/e/) | .f.b (a/g/f/=e/) .f(e/d/) (e2 | %27
 d2) z2!mf! (a2 b2) | (a/g/ f2) .a (g/f/ =e2) .g | .f(=e/d/) .d.d z4 |!mp!"_cresc." b2 d2 =e4 | %31
 (f/g/a/b/) .c'.c d4 | (=e/f/g/a/) .b.B .A.c (f2 | f)(=e/d/) .c.B .A(G/F/) G2 | %34
 F2!mf! (f2 f)(_e/f/ g/f/e/d/) | .e.=B (c2 c)(d/e/) .f(e/d/) | .e.=B (c2 c)(d/e/) .f(e/d/) | %37
 .e(d/c/) (d2 c2) z2 |!mp! (g2 _a2) (g/f/ e2) .g | (f/e/ d2) .f e(d/c/) .c.c | %40
 (B2 c2) (B/A/ G2) .B | (A/G/ ^F2) .A (G/A/B/c/) d2 |!mf! (g/a/b/a/ g/f/e/d/) e4 | %43
 (f/g/a/g/ f/e/d/c/) d4 | (e/f/g/f/ e/d/c/B/) c4 | (^f/g/a/g/ f/e/d/c/) B2 z!p! .d | %46
 (c/d/)(d/e/) (e/d/)(d/c/) (c/d/)(d/e/) (e/d/)(d/c/) | .c!mf!.^f (a2 a/)(g/f/e/ d/c/B/A/) | %48
 .A(A/G/) (A2 G2) z!f! .d | (e/d/).e z .c (d/c/).d z .B | %50
 .c!mp!.^f!>(! (a2 a/)(g/f/e/[Q:1/4=90]"_rit." d/c/[Q:1/4=80]B/A/) | %51
[Q:1/4=70] .B[Q:1/4=60](A/G/)[Q:1/4=50] A2!p! G4!>)! |] %52
V:2
 z8 | z8 |!mf! (d2 e2) (d/c/ B2) .d | (c/B/ A2) .c B(A/G/) .G.G | z4!mp! (gb)(a^f) | %5
 (gd)(cA) (Bb)(a^f) | g2 z2 z!mf! .G (e2 | e/)(f/e/d/ c/B/A/G/) .F.A (d2 | %8
!>(! d/)(e/d/c/ B/A/G/F/) .G.B e2 |!mp! (c/!>)!d/)(d/e/) (e/d/)(d/c/) (c/d/)(d/e/) (e/d/)(d/c/) | %10
 c3!mf! .c d/c/.B d/c/.B | e/d/.c e/d/.c d/c/.B d/c/.B | e/d/.c e/d/.c (B/A/B/c/) .d z | %13
!p! (B/A/B/c/) .d.c!mf! (B/d/f/).B/ (PA>B) | B2 z2 z4 | z8 | z4 (f2 g2) | %17
 (f/e/ d2) .f (e/d/ c2) .e | .d(c/B/) .B.B z2 f2- | f2 d4 =B2 | G4 z2!mp! g2- | g2 =e4 ^c2 | %22
"_cresc." A2 z .f (=e2 e/)g/f/e/ | (d2 d/)f/=e/d/ (^c2 c/)e/d/c/ | d2 z .f G2 (=e^c) | %25
 d2 z .f G2 (=e^c) | .A.g =e2 .A d2 (^c | d2) z2!mf! (f2 g2) | (f/=e/ d2) .f (e/d/ ^c2) .e | %29
 .d.A.A.A f2 A2 |!mp!"_cresc." B4 (c/d/=e/f/) .g.B | A4 (B/c/d/=e/) .f.A | G4 F2 z .A | %33
 B2 (G2 F2 =E2 | F2) z!mf! .c d3 .d | G2 z .e _A2 (d=B) | G2 z .e _A2 (d=B) | (c2 =B2 c2) z2 | z8 | %39
 z8 |!mp! (d2 e2) (d/c/ B2) .d | (c/B/ A2) .c B(A/G/) .G.G | z4!mf! (c/d/e/d/ c/B/A/G/) | %43
 A4 (B/c/d/c/ B/A/G/F/) | G4 (e/f/g/f/ e/d/c/B/) | (A/B/c/B/ A/c/B/A/) G2 z!p! .B | %46
 (A/B/)(B/c/) (c/B/)(B/A/) (A/B/)(B/c/) (c/B/)(B/A/) | A2 z!mf! .c ^f4 | (g2 ^f2 g2) z!f! .B | %49
 (c/B/).c z .A (B/A/).B z .G | A2!>(! z!mp! .c ^f4 | g2 P^f2!p! g4!>)! |] %52
V:3
!mf! G,,(G,C)(^F, G,A,B,)(G, | A,G,^F,)D, (G,A,B,)G, | G,,(G,C)(^F, G,A,B,)G, | A,2 D,2 G,2 G,,2 | %4
!mp! !wedge!G,,2 (C,D,) !wedge!G,,2 (C,D,) | !wedge!G,,2 (C,D,) !wedge!G,,2 (C,D,) | %6
 !wedge!G,,2 z!mf! G, C,4 | F,4 B,,4 | E,8 |!mp! F,8 | (F,G,A,)!mf!.F, !wedge!B,,2 !wedge!B,,2 | %11
 !wedge!B,,2 !wedge!B,,2 !wedge!B,,2 !wedge!B,,2 | !wedge!B,,2 !wedge!B,,2 !wedge!B,,2 z .B, | %13
 B,,2 z .F, B,,2 F,2 | !wedge!B,,(B,F,D,) !wedge!B,,(B,E,A,,) | (B,,C,D,B,,) (C,B,,C,A,,) | %16
 (B,,C,D,C,) B,,(B,E,A,,) | (B,,C,D,B,,) (F,G,A,F,) | (B,,C,D,C,) B,,2 z F, | %19
 (G,F,G,).G,, (G,F,G,).G,, | (C=B,C).C, z2 z!mp! G, | (A,G,A,).A,, (A,G,A,).A,, | %22
"_cresc." (D,=E,F,D,) !tenuto!.G,2 !tenuto!.C,2 | %23
 !tenuto!.F,2 !tenuto!.B,,2 !tenuto!.=E,2 !tenuto!.A,,2 | D,(A,F,D,) B,2 ^C,2 | %25
 D,(A,F,D,) B,2 ^C,2 | (D,G,) ^C,2 D,(D,A,)A,, | D,2 z2!mf! D,(B,G,^C,) | %28
 (D,=E,F,D,) (A,,=B,,^C,A,,) | (D,=E,F,D,) (F,E,F,A,) |!mp!"_cresc." (B,A,B,G,) C,4 | F,4 B,,4 | %32
 =E,4 F,2 z .F, | G,2 =E,2 F,2 C,2 | (F,G,A,F,)!mf! =B,,3 B,, | (C,D,E,C,) F,2 F,,2 | %36
 (C,D,E,C,) F,2 F,,2 | C,2 G,,2 (C,D,E,D,) |!mp! C,(CF,=B,,) (C,D,E,C,) | %39
 (D,C,=B,,G,,) (C,D,E,C,) | G,,(G,C)(^F, G,A,B,)G, | (D,!courtesy!=E,^F,)D, G,2 G,,2 | G,4 C,4 | %43
 F,4 B,,4 | E,8 | D,4 (G,,A,,B,,!p!G,,) | (^F,8 | ^F,4)!mf! D,4 | G,2 D,2 (G,A,B,!f!G,) | %49
 C,2 C,2 G,2 G,,2 | D,2!>(! z!mp! .D, D,4 | G,2 D,2!p! !fermata!G,,4!>)! |] %52

